!!!OTL: Ocean Queen
!!!ONM: 136.
**kern
*clefG2
*k[b-]
*F:
*M6/8
*MM80
{8c
=1
4c
8f
4f
8g
=2
8a
[4a
8a]
8r
8f
=3
4g
8a
4f
8e
=4
4f
8r
4r}
{8cc
=5
4cc
8cc
4cc
8cc
=6
4.dd
4cc
8cc
=7
4cc
8g
4g
8a
=8
4g
8r
4r}
{8cc
=9
4cc
8cc
4cc
8cc
=10
8dd
[4cc
8cc]
8r
8f
=11
4f
8c
4f
8g
=12
4a
8r
4r}
{8c
=13
4c
8f
4f
8g
=14
8a
4a
4r
8f
=15
4g
8a
4f
8e
=16
4.f
4r}
==
*-
!!!CNT: Folksongs of Maritime Canada
!!!MRD: 1928///-1932///
!!!OCL: Helen Creighton
!!!YOR: Songs and Ballads from Nova Scotia
!!!PPR: J.M. Dent & Sons, Limited
!!!PPP: Toronto, Canada
!!!PDT: 1932///
!!!reprint: Dover Publications, 1992: ISBN 0-486-21703-5
!!!ENC1: Craig Stuart Sapp (music and bibliographic data)                       
!!!ENC2: Marcus Pearce (phrase markings and key designations)                   
!!!ENC3: Darrell Conklin (phrase markings and key designations)   
!!!END: 2002/04/10/
!!!EEV: 2004/06/05
!!!MPN: Mr. Ben Henneberry
!!!PPG: 297
!!!EFL: 138/152
!!!ARE: Canada; Nova Scotia
!!!verses: 6
!!!VTS: 3421291725
